X: 26794
T: Miller's Daughter
R: reel
M: 4/4
K: Amajor
ag|ec ~c2 ecfc|dfec B2 af|ec ~c2 ecAc|BABc A2 af|
ec~c2 ecac|dfec B3f|ecea fdfa|gefg a2||
fg|afge fdef|afec B2fg|afge fdec|defg agaf|
eaga bgaf|ecAc B2Bc|Addc defa|gefg a2||

